davetcoleman/clam/src/dynamixel_hardware_interface/data/trajectory_error_23.csv
elbow_pitch_joint,elbow_roll_joint,gripper_roll_joint,shoulder_pan_joint,shoulder_pitch_joint,wrist_pitch_joint,wrist_roll_joint
0.0051132692929521384,0,0,-0.0051132692929521375,0.0021383692183125839,0.0051132692929520829,0
0.0051132692929521384,0,0,-0.0051132692929521375,-0.0021383692183125844,0.0051132692929523049,0
0.0051132692929521367,0,0,-0.0051132692929521375,-0.0064151076549377531,0.0051132692929520829,0
0.0051132692929521367,0,0,-0.0051132692929521375,-0.0096226614824066262,0.015339807878856471,0
0.010226538585904273,0,0,-0.0051132692929521375,-0.013899399919031788,0.015339807878856471,0
0.0051132692929521375,-0.0051132692929521375,0,-0.0051132692929521375,-0.013899399919031788,0.020453077171808554,0
0,-0.0051132692929521375,0,-0.0051132692929521375,-0.013899399919031802,0.020453077171808554,0.0051132692929521375
0.010226538585904275,-0.0051132692929521375,0,-0.0051132692929521375,-0.013899399919031802,0.020453077171808554,0.0051132692929521375
0.0051132692929521375,-0.0051132692929521375,0,-0.010226538585904275,-0.011761030700719211,0.015339807878856249,0.0051132692929521375
0.010226538585904275,-0.0051132692929521375,0,-0.010226538585904275,-0.003207553827468887,0.020453077171808554,0.0051132692929521375
0.010226538585904275,-0.0051132692929521375,0,-0.010226538585904275,-0.013899399919031774,0.025566346464760636,0.0051132692929521375
0.0051132692929521375,-0.0051132692929521375,0,-0.010226538585904275,-0.0032075538274688731,0.020453077171808554,0.0051132692929521375
0.010226538585904275,-0.0051132692929521375,0,-0.010226538585904275,-0.013899399919031774,0.015339807878856249,0.0051132692929521375
0.010226538585904275,-0.0051132692929521375,0,-0.010226538585904275,-0.017106953746500647,0.025566346464760636,0.0051132692929521375
0.0051132692929521375,-0.0051132692929521375,0,-0.010226538585904275,-0.0085534768732503097,0.020453077171808554,0.0051132692929521375
0.010226538585904273,-0.010226538585904275,0,-0.010226538585904275,-0.011761030700719211,0.010226538585904388,0.0051132692929521375
0.0051132692929521367,-0.010226538585904275,0,-0.010226538585904275,-0.016037769137344393,0.015339807878856249,0.0051132692929521375
0.010226538585904275,-0.010226538585904275,0,-0.010226538585904275,-0.0064151076549377739,0.015339807878856471,0.010226538585904275
0.010226538585904275,-0.010226538585904275,0,-0.010226538585904275,-0.0096226614824066192,0.030679615757712941,0.010226538585904275
0.010226538585904275,-0.010226538585904275,0,-0.010226538585904275,-0.009622661482406647,0.015339807878856471,0.010226538585904275
0.010226538585904277,-0.010226538585904275,0,-0.010226538585904275,-0.010691846091562873,0.015339807878856249,0.010226538585904275
0.010226538585904277,-0.010226538585904275,0,-0.010226538585904275,-0.014968584528188111,0.015339807878856471,0.010226538585904275
0.010226538585904273,-0.010226538585904275,0,-0.010226538585904275,-0.019245322964813238,0.020453077171808554,0.010226538585904275
0.010226538585904273,-0.015339807878856412,-0.0051132692929521367,-0.010226538585904275,-0.0064151076549377462,0.025566346464760636,0.010226538585904275
0.015339807878856412,-0.015339807878856412,-0.0051132692929521367,-0.015339807878856412,-0.0064151076549377462,0.025566346464760636,0.010226538585904275
0.015339807878856412,-0.015339807878856412,-0.0051132692929521367,-0.015339807878856412,-0.0074842922640940279,0.025566346464760636,0.010226538585904275
0.010226538585904273,-0.015339807878856412,-0.0051132692929521367,-0.015339807878856412,-0.0074842922640940279,0.025566346464760636,0.010226538585904275
0.0051132692929521384,-0.015339807878856412,-0.0051132692929521367,-0.015339807878856412,-0.0085534768732503097,0.025566346464760636,0.010226538585904275
0.010226538585904277,-0.015339807878856412,-0.0051132692929521367,-0.015339807878856412,-0.0096226614824065915,0.020453077171808554,0.015339807878856412
0.010226538585904277,-0.015339807878856412,-0.0051132692929521367,-0.015339807878856412,-0.009622661482406647,0.025566346464760636,0.015339807878856412
0.015339807878856415,-0.015339807878856412,-0.0051132692929521367,-0.015339807878856412,-0.0096226614824065915,0.025566346464760636,0.015339807878856412
0.010226538585904277,-0.015339807878856412,-0.0051132692929521367,-0.015339807878856412,-0.009622661482406647,0.025566346464760636,0.015339807878856412
0.015339807878856415,-0.015339807878856412,0,-0.015339807878856412,-0.0085534768732503652,0.025566346464760858,0.010226538585904275
0.010226538585904277,-0.02045307717180855,-0.0051132692929521367,-0.015339807878856412,-0.0074842922640940279,0.030679615757712719,0.015339807878856412
0.015339807878856415,-0.02045307717180855,-0.0051132692929521367,-0.015339807878856412,-0.0074842922640940834,0.025566346464760636,0.010226538585904275
0.015339807878856415,-0.02045307717180855,-0.0051132692929521367,-0.015339807878856412,-0.0074842922640940834,0.025566346464760636,0.010226538585904275
0.020453077171808554,-0.02045307717180855,-0.0051132692929521367,-0.015339807878856412,-0.0074842922640940834,0.025566346464760636,0.015339807878856412
0.015339807878856415,-0.02045307717180855,-0.0051132692929521367,-0.015339807878856412,-0.020314507573969576,0.025566346464760858,0.010226538585904275
0.020453077171808547,-0.02045307717180855,-0.0051132692929521367,-0.015339807878856412,-0.020314507573969576,0.020453077171808554,0.015339807878856412
0.025566346464760685,-0.02045307717180855,-0.0051132692929521367,-0.015339807878856412,-0.018176138355656901,0.020453077171808554,0.010226538585904275
0.020453077171808547,-0.02045307717180855,-0.0051132692929521367,-0.02045307717180855,-0.013899399919031774,0.015339807878856471,0.02045307717180855
0.020453077171808547,-0.02045307717180855,-0.0051132692929521367,-0.02045307717180855,-0.012830215309875492,0.020453077171808554,0.02045307717180855
0.015339807878856408,-0.025566346464760685,-0.0051132692929521367,-0.02045307717180855,-0.010691846091562929,0.030679615757712941,0.015339807878856412
0.020453077171808547,-0.025566346464760685,-0.0051132692929521367,-0.02045307717180855,-0.009622661482406647,0.025566346464760858,0.015339807878856412
0.020453077171808547,-0.025566346464760685,-0.0051132692929521367,-0.02045307717180855,-0.009622661482406647,0.025566346464760858,0.015339807878856412
0.025566346464760685,-0.025566346464760685,-0.0051132692929521367,-0.02045307717180855,-0.0074842922640939724,0.020453077171808554,0.015339807878856412
0.015339807878856415,-0.025566346464760685,-0.0051132692929521367,-0.02045307717180855,-0.021383692183125858,0.025566346464760636,0.015339807878856412
0.015339807878856415,-0.025566346464760685,-0.0051132692929521367,-0.02045307717180855,-0.013899399919031774,0.020453077171808554,0.015339807878856412
0.015339807878856415,-0.025566346464760685,-0.0051132692929521367,-0.02045307717180855,-0.0085534768732502542,0.025566346464760636,0.02045307717180855
0.015339807878856415,-0.025566346464760685,-0.0051132692929521367,-0.02045307717180855,-0.013899399919031885,0.01533980787885636,0.015339807878856412
0.015339807878856415,-0.025566346464760685,-0.0051132692929521367,-0.02045307717180855,-0.0085534768732503652,0.025566346464760747,0.015339807878856412
0.015339807878856415,-0.030679615757712823,-0.0051132692929521367,-0.02045307717180855,-0.0085534768732503652,0.03067961575771283,0.025566346464760688
0.015339807878856415,-0.030679615757712823,-0.0051132692929521367,-0.02045307717180855,-0.0085534768732503652,0.03067961575771283,0.025566346464760688
0.015339807878856415,-0.030679615757712823,-0.0051132692929521367,-0.02045307717180855,-0.0064151076549376906,0.025566346464760747,0.02045307717180855
0.015339807878856415,-0.030679615757712823,-0.0051132692929521367,-0.02045307717180855,-0.019245322964813294,0.025566346464760636,0.02045307717180855
0.020453077171808554,-0.030679615757712823,-0.0051132692929521367,-0.025566346464760688,-0.017106953746500619,0.025566346464760747,0.02045307717180855
0.020453077171808554,-0.030679615757712823,-0.0051132692929521367,-0.025566346464760688,-0.013899399919031774,0.01533980787885636,0.02045307717180855
0.015339807878856415,-0.030679615757712823,-0.0051132692929521367,-0.025566346464760688,-0.009622661482406647,0.015339807878856471,0.02045307717180855
0.020453077171808554,-0.035792885050664962,-0.0051132692929521367,-0.025566346464760688,-0.0074842922640940834,0.035792885050665024,0.02045307717180855
0.020453077171808554,-0.030679615757712823,-0.0051132692929521367,-0.025566346464760688,-0.0064151076549376906,0.025566346464760636,0.02045307717180855
0.020453077171808554,-0.030679615757712823,-0.0051132692929521367,-0.025566346464760688,-0.0064151076549376906,0.025566346464760636,0.02045307717180855
0.020453077171808554,-0.0409061543436171,-0.0051132692929521367,-0.025566346464760688,-0.0042767384366251271,0.025566346464760747,0.025566346464760688
0.015339807878856415,-0.0409061543436171,-0.0051132692929521367,-0.025566346464760688,-0.017106953746500619,0.015339807878856471,0.030679615757712827
0.015339807878856415,-0.035792885050664962,-0.0051132692929521367,-0.025566346464760688,-0.011761030700719211,0.01533980787885636,0.030679615757712827
0.015339807878856415,-0.035792885050664962,-0.0051132692929521367,-0.025566346464760688,-0.012830215309875603,0.020453077171808554,0.025566346464760688
0.020453077171808554,-0.0409061543436171,-0.0051132692929521367,-0.025566346464760688,-0.009622661482406647,0.035792885050665024,0.025566346464760688
0.020453077171808554,-0.035792885050664962,-0.0051132692929521367,-0.025566346464760688,-0.0085534768732503652,0.03067961575771283,0.025566346464760688
0.020453077171808554,-0.035792885050664962,-0.0051132692929521367,-0.025566346464760688,-0.0085534768732503652,0.03067961575771283,0.025566346464760688
0.02045307717180854,-0.0409061543436171,-0.010226538585904273,-0.025566346464760688,-0.0053459230457814089,0.025566346464760747,0.025566346464760688
0.02045307717180854,-0.046019423636569232,-0.010226538585904273,-0.030679615757712823,-0.019245322964813072,0.020453077171808554,0.025566346464760688
0.02045307717180854,-0.046019423636569232,-0.010226538585904273,-0.030679615757712823,-0.016037769137344338,0.025566346464760636,0.025566346464760688
0.02045307717180854,-0.046019423636569232,-0.010226538585904273,-0.030679615757712823,-0.012830215309875603,0.020453077171808554,0.025566346464760688
0.015339807878856401,-0.0409061543436171,-0.010226538585904273,-0.030679615757712823,-0.010691846091562818,0.025566346464760636,0.035792885050664962
0.02045307717180854,-0.0409061543436171,-0.010226538585904273,-0.030679615757712823,-0.0074842922640940834,0.025566346464760747,0.030679615757712823
0.025566346464760678,-0.046019423636569232,-0.010226538585904273,-0.030679615757712823,-0.0074842922640940834,0.03067961575771283,0.030679615757712823
0.025566346464760678,-0.046019423636569232,-0.010226538585904273,-0.030679615757712823,-0.0074842922640940834,0.03067961575771283,0.030679615757712823
0.02045307717180854,-0.046019423636569232,-0.010226538585904273,-0.030679615757712823,-0.0053459230457815199,0.03067961575771283,0.030679615757712823
0.015339807878856415,-0.046019423636569232,-0.010226538585904273,-0.030679615757712823,-0.019245322964813072,0.025566346464760636,0.030679615757712823
0.020453077171808554,-0.05113269292952137,-0.010226538585904273,-0.030679615757712823,-0.014968584528188167,0.020453077171808554,0.030679615757712823
0.020453077171808554,-0.05113269292952137,-0.010226538585904273,-0.030679615757712823,-0.009622661482406647,0.01533980787885636,0.035792885050664962
0.020453077171808554,-0.046019423636569239,-0.010226538585904273,-0.035792885050664962,-0.01069184609156304,0.015339807878856471,0.030679615757712823
0.015339807878856415,-0.046019423636569239,-0.010226538585904273,-0.030679615757712823,-0.0074842922640938614,0.025566346464760692,0.030679615757712823
0.020453077171808554,-0.046019423636569239,-0.010226538585904273,-0.030679615757712823,-0.0064151076549376906,0.025566346464760692,0.035792885050664962
0.020453077171808554,-0.046019423636569239,-0.010226538585904273,-0.030679615757712823,-0.0064151076549376906,0.025566346464760692,0.035792885050664962
0.020453077171808554,-0.046019423636569239,-0.010226538585904273,-0.035792885050664962,-0.0042767384366251271,0.020453077171808554,0.0409061543436171
0.025566346464760692,-0.046019423636569239,-0.010226538585904273,-0.035792885050664962,-0.018176138355656901,0.015339807878856415,0.035792885050664962
0.025566346464760692,-0.046019423636569239,-0.010226538585904273,-0.035792885050664962,-0.01603776913734456,0.020453077171808554,0.035792885050664962
0.025566346464760692,-0.056245962222473508,-0.010226538585904273,-0.035792885050664962,-0.009622661482406647,0.020453077171808554,0.035792885050664962
0.025566346464760692,-0.051132692929521377,-0.010226538585904273,-0.035792885050664962,-0.009622661482406647,0.020453077171808554,0.035792885050664962
0.025566346464760692,-0.051132692929521377,-0.010226538585904273,-0.035792885050664962,-0.0074842922640940834,0.020453077171808554,0.035792885050664962
0.03067961575771283,-0.051132692929521377,-0.010226538585904273,-0.035792885050664962,-0.0064151076549376906,0.015339807878856415,0.035792885050664962
0.03067961575771283,-0.056245962222473508,-0.010226538585904273,-0.035792885050664962,-0.0074842922640940834,0.03067961575771283,0.035792885050664962
0.025566346464760692,-0.056245962222473508,-0.010226538585904273,-0.035792885050664962,-0.0053459230457812978,0.03067961575771283,0.0409061543436171
0.03067961575771283,-0.056245962222473508,-0.010226538585904273,-0.035792885050664962,-0.0053459230457815199,0.025566346464760692,0.0409061543436171
0.03067961575771283,-0.056245962222473508,-0.010226538585904273,-0.035792885050664962,-0.0064151076549379127,0.025566346464760692,0.0409061543436171
0.03067961575771283,-0.056245962222473508,-0.010226538585904273,-0.035792885050664962,-0.0053459230457812978,0.020453077171808554,0.046019423636569239
0.015339807878856415,-0.061359231515425647,-0.010226538585904273,-0.035792885050664962,-0.0042767384366251271,0.025566346464760664,0.0409061543436171
0.015339807878856415,-0.061359231515425647,-0.010226538585904273,-0.035792885050664962,-0.0053459230457815199,0.025566346464760664,0.0409061543436171
0.020453077171808554,-0.056245962222473515,-0.010226538585904273,-0.0409061543436171,-0.0064151076549376906,0.03067961575771283,0.0409061543436171
0.015339807878856415,-0.056245962222473515,-0.010226538585904273,-0.0409061543436171,-0.0074842922640940834,0.03067961575771283,0.0409061543436171
0.015339807878856415,-0.056245962222473515,-0.010226538585904273,-0.0409061543436171,-0.0064151076549376906,0.025566346464760692,0.0409061543436171
0.015339807878856415,-0.056245962222473515,-0.010226538585904273,-0.0409061543436171,-0.0074842922640940834,0.015339807878856415,0.0409061543436171
0.015339807878856415,-0.056245962222473515,-0.010226538585904273,-0.0409061543436171,-0.0074842922640940834,0.0051132692929521384,0.0409061543436171
0.020453077171808554,-0.056245962222473515,-0.010226538585904273,-0.0409061543436171,-0.0074842922640938614,0.015339807878856415,0.0409061543436171
0.020453077171808554,-0.056245962222473515,-0.010226538585904273,-0.0409061543436171,-0.0085534768732502542,0.020453077171808554,0.046019423636569239
0.025566346464760692,-0.066472500808377785,-0.010226538585904273,-0.0409061543436171,-0.0074842922640940834,0.015339807878856401,0.046019423636569239
0.020453077171808554,-0.061359231515425654,-0.010226538585904273,-0.0409061543436171,-0.0010691846091561708,0.025566346464760692,0.046019423636569239
0.020453077171808554,-0.061359231515425654,-0.010226538585904273,-0.0409061543436171,0,0.035792885050664969,0.046019423636569239
0.025566346464760692,-0.061359231515425654,-0.010226538585904273,-0.0409061543436171,-0.0053459230457812978,0.015339807878856415,0.046019423636569239
0.025566346464760692,-0.061359231515425654,-0.010226538585904273,-0.0409061543436171,-0.0074842922640940834,0.025566346464760685,0.046019423636569239
0.020453077171808554,-0.066472500808377785,-0.010226538585904273,-0.0409061543436171,0,0.020453077171808554,0.046019423636569239
0.020453077171808554,-0.061359231515425654,-0.015339807878856412,-0.0409061543436171,-0.0042767384366251271,0.010226538585904277,0.046019423636569239
0.015339807878856415,-0.061359231515425654,-0.015339807878856412,-0.0409061543436171,-0.01069184609156304,0.02045307717180855,0.046019423636569239
0.020453077171808554,-0.061359231515425654,-0.015339807878856412,-0.046019423636569239,-0.0032075538274689563,0.025566346464760685,0.046019423636569239
0.015339807878856415,-0.066472500808377785,-0.015339807878856412,-0.046019423636569239,-0.011761030700719211,0.015339807878856412,0.046019423636569239
0.015339807878856415,-0.066472500808377785,-0.015339807878856412,-0.046019423636569239,-0.0064151076549379127,0.010226538585904277,0.051132692929521377
0.015339807878856415,-0.066472500808377785,-0.015339807878856412,-0.046019423636569239,0.0042767384366251271,0.025566346464760692,0.051132692929521377
0.020453077171808554,-0.066472500808377785,-0.010226538585904275,-0.046019423636569239,-0.01069184609156304,0.020453077171808547,0.051132692929521377
0.010226538585904277,-0.066472500808377785,-0.010226538585904275,-0.046019423636569239,-0.009622661482406647,0.015339807878856415,0.051132692929521377
0.010226538585904277,-0.066472500808377785,-0.010226538585904275,-0.046019423636569239,-0.0074842922640940834,0.0051132692929521384,0.051132692929521377
0.0051132692929521384,-0.066472500808377785,0.0051132692929521375,-0.046019423636569239,-0.0042767384366253491,0,0.056245962222473515
0,-0.066472500808377785,-0.010226538585904275,-0.046019423636569239,-0.0064151076549376906,0.0051132692929521384,0.056245962222473515
0,-0.071585770101329924,-0.010226538585904275,-0.046019423636569239,-0.0010691846091563928,0,0.056245962222473515
0,-0.071585770101329924,-0.010226538585904275,-0.046019423636569239,-0.0010691846091563928,0,0.051132692929521377
