davetcoleman/clam/src/dynamixel_hardware_interface/data/trajectory_error_8.csv
elbow_pitch_joint,elbow_roll_joint,gripper_roll_joint,shoulder_pan_joint,shoulder_pitch_joint,wrist_pitch_joint,wrist_roll_joint
0,0,0,0,0,0,0
0,0,-0.0051132692929521367,0,0,-0.0051132692929521375,0
0,0,0,0,0,-0.010226538585904275,0
0,0,0,0,0,-0.010226538585904275,0
0.0051132692929521375,0,0,0,0,-0.02045307717180855,0
0,0,-0.0051132692929521367,0,0,-0.015339807878856412,0
0,0,-0.0051132692929521367,0,0,-0.015339807878856412,0
0,0,0,0,0,-0.015339807878856413,0
0,0,0,0,0,-0.015339807878856412,0
0,0,-0.0051132692929521367,0,0,-0.015339807878856412,0
0,0,-0.0051132692929521367,0,0,-0.02045307717180855,0
0.0051132692929521375,0,-0.0051132692929521367,0,0,-0.025566346464760688,0
0.0051132692929521375,0,-0.0051132692929521367,0,0,-0.025566346464760688,0
0,0,-0.0051132692929521367,-0.0051132692929521367,0,-0.010226538585904277,0
0.0051132692929521375,0,-0.0051132692929521367,-0.0051132692929521367,0.0010691846091562917,-0.020453077171808554,0
0.0051132692929521375,0,-0.0051132692929521367,-0.0051132692929521367,0.0010691846091562917,-0.020453077171808547,0
0.0051132692929521375,0,-0.0051132692929521367,-0.0051132692929521367,0.0010691846091562917,-0.020453077171808547,0
0,0,-0.0051132692929521367,-0.0051132692929521367,0.0010691846091562917,-0.020453077171808547,0
0,0,-0.0051132692929521367,-0.0051132692929521367,0.0010691846091562917,-0.020453077171808547,0
0,0,-0.0051132692929521367,-0.0051132692929521367,0.0010691846091562917,-0.020453077171808547,0
0,0,-0.0051132692929521367,-0.0051132692929521367,0.0010691846091562917,-0.020453077171808554,0
0,0,-0.0051132692929521367,-0.0051132692929521367,0.0010691846091562917,-0.020453077171808554,0
0,0,-0.0051132692929521367,-0.0051132692929521367,0.0010691846091562917,-0.020453077171808554,0
0.0051132692929521375,0,-0.0051132692929521367,-0.0051132692929521367,0.0010691846091562917,-0.025566346464760692,0
0.0051132692929521375,0,-0.0051132692929521367,-0.0051132692929521367,0.0010691846091562917,-0.025566346464760692,0
0,0,-0.0051132692929521367,-0.0051132692929521367,0.0010691846091562917,-0.020453077171808554,0
0,0,-0.0051132692929521367,-0.0051132692929521367,0.0010691846091562917,-0.025566346464760692,-0.0051132692929521375
0,0,-0.0051132692929521367,-0.0051132692929521367,0.0010691846091562917,-0.025566346464760692,-0.0051132692929521375
0.0051132692929521375,0,-0.0051132692929521367,-0.0051132692929521367,0.0010691846091562917,-0.02045307717180854,-0.0051132692929521375
0.0051132692929521375,0,-0.0051132692929521367,-0.0051132692929521367,0.0010691846091562917,-0.02045307717180854,-0.0051132692929521375
0,0,-0.010226538585904275,-0.0051132692929521367,0.0010691846091562917,-0.02045307717180854,-0.0051132692929521375
0,0,-0.010226538585904275,-0.0051132692929521367,0.0010691846091562917,-0.02045307717180854,-0.0051132692929521375
0,0,-0.010226538585904275,-0.0051132692929521367,0.0010691846091562917,-0.020453077171808554,-0.0051132692929521375
0,0,-0.010226538585904275,-0.0051132692929521367,0.0010691846091562917,-0.020453077171808554,-0.0051132692929521375
0,0,-0.010226538585904275,-0.0051132692929521367,0.0010691846091562917,-0.020453077171808554,-0.0051132692929521375
0,0,-0.0051132692929521367,-0.010226538585904273,0.0010691846091562917,-0.020453077171808554,-0.0051132692929521375
0,0,-0.0051132692929521367,-0.010226538585904273,0.0010691846091562917,-0.020453077171808554,-0.0051132692929521375
0.0051132692929521375,0,-0.010226538585904275,-0.010226538585904273,0.0010691846091562917,-0.025566346464760692,-0.0051132692929521375
0.0051132692929521375,0,-0.010226538585904275,-0.010226538585904273,0.0010691846091562917,-0.025566346464760692,-0.0051132692929521375
0.0051132692929521375,0,-0.010226538585904275,-0.010226538585904273,0.0021383692183125835,-0.025566346464760692,-0.0051132692929521375
0.0051132692929521375,0,-0.010226538585904275,-0.010226538585904273,0.0021383692183125835,-0.025566346464760692,-0.0051132692929521375
0,0,-0.010226538585904275,-0.010226538585904273,0.0032075538274688752,-0.025566346464760692,-0.0051132692929521375
0,0,-0.010226538585904275,-0.010226538585904273,0.0032075538274688752,-0.025566346464760692,-0.0051132692929521375
0.0051132692929521375,0,-0.010226538585904275,-0.010226538585904273,0.0032075538274688752,-0.025566346464760692,-0.0051132692929521375
0.0051132692929521375,0,-0.010226538585904275,-0.010226538585904273,0.0032075538274688752,-0.025566346464760692,-0.0051132692929521375
0,0,-0.010226538585904275,-0.010226538585904273,0.0032075538274688752,-0.025566346464760692,-0.0051132692929521375
0,0,-0.010226538585904275,-0.010226538585904273,0.0032075538274688752,-0.025566346464760692,-0.0051132692929521375
0,0,-0.010226538585904275,-0.010226538585904273,0.0032075538274688752,-0.020453077171808554,-0.0051132692929521375
0,0,-0.010226538585904275,-0.010226538585904273,0.0032075538274688752,-0.020453077171808554,-0.0051132692929521375
0,0,-0.010226538585904275,-0.010226538585904273,0.0032075538274688752,-0.025566346464760692,-0.0051132692929521375
0,0,-0.010226538585904275,-0.010226538585904273,0.0032075538274688752,-0.025566346464760692,-0.0051132692929521375
0,0,-0.010226538585904275,-0.010226538585904273,0.0032075538274688752,-0.020453077171808554,-0.0051132692929521375
0,0,-0.010226538585904275,-0.010226538585904273,0.0032075538274688752,-0.020453077171808554,-0.0051132692929521375
0,0,-0.010226538585904275,-0.010226538585904273,0.0032075538274688752,-0.025566346464760664,-0.0051132692929521375
0,0,-0.010226538585904275,-0.010226538585904273,0.0032075538274688752,-0.025566346464760664,-0.0051132692929521375
0,0,-0.010226538585904275,-0.010226538585904273,0.0032075538274688752,-0.020453077171808526,-0.0051132692929521375
0,0,-0.010226538585904275,-0.010226538585904273,0.0032075538274688752,-0.020453077171808526,-0.0051132692929521375
0.0051132692929521375,0,-0.010226538585904275,-0.015339807878856412,0.0032075538274688752,-0.020453077171808526,-0.0051132692929521375
0.0051132692929521375,0,-0.010226538585904275,-0.015339807878856412,0.0032075538274688752,-0.020453077171808526,-0.0051132692929521375
0.0051132692929521375,0,-0.010226538585904275,-0.015339807878856412,0.0032075538274688752,-0.020453077171808554,-0.0051132692929521375
0.0051132692929521375,0,-0.010226538585904275,-0.015339807878856412,0.0032075538274688752,-0.020453077171808554,-0.0051132692929521375
0,0,-0.010226538585904275,-0.015339807878856412,0.004276738436625167,-0.020453077171808554,-0.0051132692929521375
0,0,-0.010226538585904275,-0.015339807878856412,0.004276738436625167,-0.020453077171808554,-0.0051132692929521375
0.0051132692929521375,0,-0.0051132692929521367,-0.015339807878856412,0.0053459230457814592,-0.020453077171808554,-0.0051132692929521375
0.0051132692929521375,0,-0.0051132692929521367,-0.015339807878856412,0.0053459230457814592,-0.020453077171808554,-0.0051132692929521375
0.0051132692929521375,0,-0.0051132692929521367,-0.015339807878856412,0.0053459230457814592,-0.020453077171808554,-0.0051132692929521375
0.0051132692929521375,0,-0.0051132692929521367,-0.015339807878856412,0.0053459230457814592,-0.020453077171808554,-0.0051132692929521375
0.0051132692929521375,0,-0.010226538585904275,-0.015339807878856412,0.0053459230457814592,-0.020453077171808554,-0.0051132692929521375
0.0051132692929521375,0,-0.010226538585904275,-0.015339807878856412,0.0053459230457814592,-0.020453077171808554,-0.0051132692929521375
0.0051132692929521375,0,-0.010226538585904275,-0.015339807878856412,0.0053459230457814592,-0.020453077171808554,-0.0051132692929521375
0.0051132692929521375,0,-0.010226538585904275,-0.015339807878856412,0.0053459230457814592,-0.020453077171808554,-0.0051132692929521375
0.0051132692929521375,0,-0.0051132692929521367,-0.015339807878856412,0.0053459230457814592,-0.020453077171808554,-0.0051132692929521375
0.0051132692929521375,0,-0.0051132692929521367,-0.015339807878856412,0.0053459230457814592,-0.020453077171808554,-0.0051132692929521375
0.0051132692929521375,0,-0.010226538585904275,-0.015339807878856412,0.0053459230457814592,-0.020453077171808554,-0.0051132692929521375
0.0051132692929521375,0,-0.010226538585904275,-0.015339807878856412,0.0053459230457814592,-0.020453077171808554,-0.0051132692929521375
0.0051132692929521375,0,-0.010226538585904275,-0.015339807878856412,0.0053459230457814592,-0.025566346464760692,-0.010226538585904275
0.0051132692929521375,0,-0.010226538585904275,-0.015339807878856412,0.0053459230457814592,-0.025566346464760692,-0.010226538585904275
0.0051132692929521375,0,-0.010226538585904275,-0.015339807878856412,0.0053459230457814592,-0.025566346464760692,-0.010226538585904275
0.0051132692929521375,0,-0.010226538585904275,-0.015339807878856412,0.0053459230457814592,-0.010226538585904277,-0.010226538585904275
0.0051132692929521375,0,-0.010226538585904275,-0.015339807878856412,0.0053459230457814592,-0.010226538585904277,-0.010226538585904275
0.0051132692929521375,0,-0.010226538585904275,-0.015339807878856412,0.0053459230457814592,-0.020453077171808554,-0.010226538585904275
0,0,-0.010226538585904275,-0.02045307717180855,0.0053459230457814592,-0.020453077171808554,-0.010226538585904275
0,0,-0.010226538585904275,-0.02045307717180855,0.0053459230457814592,-0.020453077171808554,-0.010226538585904275
0,0,-0.010226538585904275,-0.02045307717180855,0.0053459230457814592,-0.020453077171808554,-0.010226538585904275
0,0,-0.010226538585904275,-0.02045307717180855,0.0053459230457814592,-0.020453077171808554,-0.010226538585904275
0,0,-0.010226538585904275,-0.02045307717180855,0.0064151076549377505,-0.025566346464760692,-0.010226538585904275
0,0,-0.010226538585904275,-0.02045307717180855,0.0064151076549377505,-0.025566346464760692,-0.010226538585904275
0,0,-0.010226538585904275,-0.02045307717180855,0.0064151076549377505,-0.025566346464760692,-0.010226538585904275
0,0,-0.010226538585904275,-0.02045307717180855,0.0064151076549377505,-0.020453077171808554,-0.010226538585904275
0,0,-0.010226538585904275,-0.02045307717180855,0.0064151076549377505,-0.020453077171808554,-0.010226538585904275
0,0,-0.010226538585904275,-0.02045307717180855,0.0064151076549377505,-0.015339807878856415,-0.010226538585904275
0,0,-0.010226538585904275,-0.02045307717180855,0.0064151076549377505,-0.015339807878856415,-0.010226538585904275
0,0,-0.010226538585904275,-0.02045307717180855,0.0064151076549377505,-0.015339807878856415,-0.010226538585904275
0,0,-0.010226538585904275,-0.02045307717180855,0.0064151076549377505,-0.020453077171808554,-0.010226538585904275
0.0051132692929521375,0,-0.010226538585904275,-0.02045307717180855,0.0064151076549377505,-0.015339807878856415,-0.010226538585904275
0.0051132692929521375,0,-0.010226538585904275,-0.02045307717180855,0.0064151076549377505,-0.010226538585904277,-0.010226538585904275
0.0051132692929521375,0,-0.010226538585904275,-0.02045307717180855,0.0064151076549377505,-0.010226538585904277,-0.010226538585904275
0.0051132692929521375,0,-0.010226538585904275,-0.02045307717180855,0.0064151076549377505,-0.015339807878856415,-0.010226538585904275
0.0051132692929521375,0,-0.010226538585904275,-0.02045307717180855,0.0064151076549377505,-0.015339807878856415,-0.010226538585904275
0.0051132692929521375,0,-0.010226538585904275,-0.02045307717180855,0.0064151076549377505,-0.020453077171808554,-0.010226538585904275
0.0051132692929521375,0,-0.010226538585904275,-0.02045307717180855,0.0064151076549377505,-0.010226538585904277,-0.010226538585904275
0.0051132692929521375,0,-0.010226538585904275,-0.02045307717180855,0.0064151076549377505,-0.010226538585904277,-0.010226538585904275
0.0051132692929521375,0,-0.010226538585904275,-0.025566346464760685,0.0064151076549377505,-0.010226538585904221,-0.010226538585904275
0.0051132692929521375,0,-0.010226538585904275,-0.025566346464760685,0.0064151076549377505,-0.010226538585904221,-0.010226538585904275
0.0051132692929521375,0,-0.010226538585904275,-0.025566346464760685,0.0064151076549377505,-0.0051132692929521384,-0.010226538585904275
